X: 1
T: the Haughs of Cromdale
R: strathspey
M: 4/4
L: 1/8
K: Edorian
e \
| "Em"B<E E>F "Bm"B>A F<A | "Em"B<E EF/E/ "D"D>E F<A \
| "Em"B<E E>F "Bm"B>A F<A | "G"B>d "D(Bm)"B/A/G/F/ "Em"E3 :|
|: F \
| "D"D<d d>e d/c/B/A/ d2 | "D"F<A A>B B/A/G/F/ A2 \
| "Em"B<e e>f "C"g>f e>d | "G"B>d "D(Bm)"B/A/G/F/ "Em"E3 :|
